assets/img/SVG/Youtube_green.svg

<svg width="23" height="17" viewBox="0 0 23 17" xmlns="http://www.w3.org/2000/svg" xmlns:xlink="http://www.w3.org/1999/xlink"><title>Youtube</title><defs><path id="a" d="M23 8.267v8.089H0V.179h23z"/></defs><g fill="none" fill-rule="evenodd"><mask id="b" fill="#fff"><use xlink:href="#a"/></mask><path d="M9.126 11.25l-.001-6.462 6.214 3.242-6.213 3.22zM22.77 3.67s-.225-1.585-.915-2.284C20.982.47 20 .465 19.552.412 16.333.179 11.505.179 11.505.179h-.01s-4.828 0-8.047.233c-.45.053-1.43.058-2.304.973C.454 2.084.23 3.67.23 3.67S0 5.529 0 7.39v1.745c0 1.861.23 3.722.23 3.722s.224 1.585.914 2.284c.875.916 2.024.886 2.536.982 1.84.177 7.82.232 7.82.232s4.833-.008 8.052-.24c.45-.054 1.43-.058 2.304-.974.69-.699.915-2.284.915-2.284S23 10.998 23 9.136V7.391c0-1.861-.23-3.722-.23-3.722v.001z" fill="#CDE5B3" mask="url(#b)"/></g></svg>

<?xml version="1.0" encoding="UTF-8"?>
<svg width="23px" height="17px" viewBox="0 0 23 17" version="1.1" xmlns="http://www.w3.org/2000/svg" xmlns:xlink="http://www.w3.org/1999/xlink">
    <!-- Generator: Sketch 39.1 (31720) - http://www.bohemiancoding.com/sketch -->
    <title>Youtube</title>
    <desc>Created with Sketch.</desc>
    <defs>
        <polygon id="path-1" points="23 8.267 23 16.356 0 16.356 0 0.179 23 0.179"></polygon>
    </defs>
    <g id="Page-1" stroke="none" stroke-width="1" fill="none" fill-rule="evenodd">
        <g id="Youtube">
            <g id="Group">
                <g id="Clipped">
                    <mask id="mask-2" fill="white">
                        <use xlink:href="#path-1"></use>
                    </mask>
                    <g id="a"></g>
                    <path d="M9.126,11.25 L9.125,4.788 L15.339,8.03 L9.126,11.25 L9.126,11.25 Z M22.77,3.67 C22.77,3.67 22.545,2.085 21.855,1.386 C20.982,0.47 20,0.465 19.552,0.412 C16.333,0.179 11.505,0.179 11.505,0.179 L11.495,0.179 C11.495,0.179 6.667,0.179 3.448,0.412 C2.998,0.465 2.018,0.47 1.144,1.385 C0.454,2.084 0.23,3.67 0.23,3.67 C0.23,3.67 0,5.529 0,7.39 L0,9.135 C0,10.996 0.23,12.857 0.23,12.857 C0.23,12.857 0.454,14.442 1.144,15.141 C2.019,16.057 3.168,16.027 3.68,16.123 C5.52,16.3 11.5,16.355 11.5,16.355 C11.5,16.355 16.333,16.347 19.552,16.115 C20.002,16.061 20.982,16.057 21.856,15.141 C22.546,14.442 22.771,12.857 22.771,12.857 C22.771,12.857 23,10.998 23,9.136 L23,7.391 C23,5.53 22.77,3.669 22.77,3.669 L22.77,3.67 Z" id="Shape" fill="#CDE5B3" mask="url(#mask-2)"></path>
                </g>
            </g>
        </g>
    </g>
</svg>
